ore/public/images/sponsors/creeperhost.svg

<?xml version="1.0" encoding="utf-8"?>
<!DOCTYPE svg PUBLIC "-//W3C//DTD SVG 1.1//EN" "http://www.w3.org/Graphics/SVG/1.1/DTD/svg11.dtd">
<svg xmlns="http://www.w3.org/2000/svg" version="1.1" baseProfile="full" width="960" height="265.685"
     viewBox="0 0 960.00 265.69" enable-background="new 0 0 960.00 265.69" xml:space="preserve">
	<g>
		<path fill="#0E6939" fill-opacity="1" stroke-width="0.2" stroke-linejoin="round" d="M 551.43,226.246L 577.605,239.47L 577.605,196.049L 551.43,209.155L 551.43,226.246 Z "/>
		<path fill="#0F6B3A" fill-opacity="1" stroke-width="0.2" stroke-linejoin="round" d="M 577.605,169.72L 577.605,196.048L 603.781,182.941L 577.605,169.72 Z "/>
		<path fill="#13A650" fill-opacity="1" stroke-width="0.2" stroke-linejoin="round" d="M 577.605,196.048L 603.781,182.941L 603.781,226.357L 577.605,239.469L 577.605,196.048 Z "/>
		<path fill="#8DC641" fill-opacity="1" stroke-width="0.2" stroke-linejoin="round" d="M 472.915,195.829L 525.26,222.269L 525.26,265.685L 472.915,239.244L 472.915,195.829 Z "/>
		<path fill="#2BB673" fill-opacity="1" stroke-width="0.2" stroke-linejoin="round" d="M 525.26,222.269L 551.431,209.155L 551.431,252.576L 525.26,265.685L 525.26,222.269 Z "/>
		<path fill="#13A650" fill-opacity="1" stroke-width="0.2" stroke-linejoin="round" d="M 499.089,182.715L 551.431,209.155L 525.26,222.269L 472.915,195.829L 499.089,182.715 Z "/>
		<path fill="#0E6939" fill-opacity="1" stroke-width="0.2" stroke-linejoin="round" d="M 499.089,98.3502L 538.349,118.016L 551.431,111.462L 551.431,209.156L 499.089,182.714L 499.089,98.3502 Z "/>
		<path fill="#8DC641" fill-opacity="1" stroke-width="0.2" stroke-linejoin="round" d="M 551.43,111.462L 577.605,98.3501L 577.605,196.047L 551.43,209.155L 551.43,111.462 Z "/>
		<path fill="#8DC641" fill-opacity="1" stroke-width="0.2" stroke-linejoin="round" d="M 486.009,26.4399L 486.009,91.7999L 538.35,118.016L 538.35,52.8813L 486.009,26.4399 Z "/>
		<path fill="#2BB673" fill-opacity="1" stroke-width="0.2" stroke-linejoin="round" d="M 538.35,52.8814L 590.691,26.4401L 590.691,91.7988L 538.35,118.016L 538.35,52.8814 Z "/>
		<path fill="#0F9548" fill-opacity="1" stroke-width="0.2" stroke-linejoin="round" d="M 538.35,0L 486.008,26.4399L 538.35,52.8813L 590.691,26.4399L 538.35,0 Z "/>
	</g>
	<g>
		<path fill="#000000" fill-opacity="1" stroke-width="0.2" stroke-linejoin="round" d="M 638.589,73.3814L 638.589,129.421L 596.037,129.421L 596.037,85.0547L 590.632,85.058L 590.632,91.7803L 577.576,98.2803L 577.597,169.745L 596.034,179.023L 596.037,151.3L 638.589,151.3L 638.589,207.343L 659.988,207.343L 659.988,73.3814L 638.589,73.3814 Z "/>
		<path fill="#000000" fill-opacity="1" stroke-width="0.2" stroke-linejoin="round" d="M 704.683,168.936C 688.928,168.936 676.16,155.864 676.16,139.752C 676.16,123.641 688.928,110.581 704.683,110.581C 720.436,110.581 733.204,123.641 733.204,139.752C 733.204,155.864 720.436,168.936 704.683,168.936 Z M 704.683,95.9921C 681.05,95.9921 661.891,115.585 661.891,139.752C 661.891,163.928 681.05,183.524 704.683,183.524C 728.31,183.524 747.475,163.928 747.475,139.752C 747.475,115.585 728.31,95.9921 704.683,95.9921 Z "/>
		<path fill="#000000" fill-opacity="1" stroke-width="0.2" stroke-linejoin="round" d="M 959.999,95.9921L 775.277,95.9921C 761.505,95.9921 750.326,107.419 750.326,121.523C 750.326,135.621 761.505,147.051 775.277,147.051L 795.255,147.051C 801.169,147.051 805.959,151.955 805.959,157.988C 805.959,164.043 801.169,168.936 795.255,168.936L 741.765,168.936L 741.765,183.524L 795.255,183.524C 809.042,183.524 820.215,172.084 820.215,157.988C 820.215,143.889 809.042,132.461 795.255,132.461L 775.277,132.461C 769.386,132.461 764.583,127.56 764.583,121.523C 764.583,115.479 769.386,110.581 775.277,110.581L 861.583,110.581L 861.583,183.524L 875.849,183.524L 875.849,110.581L 916.319,110.581C 929.518,98.1814 959.999,95.9921 959.999,95.9921 Z "/>
		<path fill="#000000" fill-opacity="1" stroke-width="0.2" stroke-linejoin="round" d="M 42.1987,168.936C 26.6627,168.936 14.064,155.864 14.064,139.752C 14.064,123.641 26.6627,110.581 42.1987,110.581C 49.9667,110.581 57.004,113.849 62.0987,119.128L 72.04,108.812C 64.4067,100.892 53.8507,95.9921 42.1987,95.9921C 18.8933,95.9921 0,115.585 0,139.752C 0,163.928 18.8933,183.524 42.1987,183.524C 53.8507,183.524 64.4067,178.616 72.04,170.696L 62.0987,160.392C 57.004,165.671 49.9667,168.936 42.1987,168.936 Z "/>
		<path fill="#000000" fill-opacity="1" stroke-width="0.2" stroke-linejoin="round" d="M 115.346,139.752L 90.0285,139.752L 90.0285,110.582L 115.346,110.582C 123.118,110.582 129.411,117.113 129.411,125.168C 129.411,133.224 123.118,139.752 115.346,139.752 Z M 143.485,125.168C 143.485,109.054 130.882,95.9924 115.346,95.9924L 75.9592,95.9924L 75.9592,183.525L 90.0285,183.525L 90.0285,154.344L 110.999,154.344L 127.242,183.525L 143.485,183.525L 126.027,152.159C 136.269,147.795 143.485,137.36 143.485,125.168 Z "/>
		<path fill="#000000" fill-opacity="1" stroke-width="0.2" stroke-linejoin="round" d="M 306.656,139.752L 281.34,139.752L 281.34,110.582L 306.656,110.582C 314.433,110.582 320.73,117.113 320.73,125.168C 320.73,133.222 314.433,139.752 306.656,139.752 Z M 306.656,95.9924L 211.005,95.9924L 211.005,168.937L 163.18,168.937L 163.18,148.126L 180.053,148.126L 180.053,133.545L 163.18,133.545L 163.18,110.582L 205.374,110.582L 205.374,95.9924L 149.114,95.9924L 149.114,183.525L 261.648,183.525L 261.648,168.937L 225.066,168.937L 225.066,148.126L 241.949,148.126L 241.949,133.545L 225.066,133.545L 225.066,110.582L 267.265,110.582L 267.265,183.525L 281.34,183.525L 281.34,154.344L 306.656,154.344C 322.201,154.344 334.79,141.281 334.79,125.168C 334.79,109.054 322.201,95.9924 306.656,95.9924 Z "/>
		<path fill="#000000" fill-opacity="1" stroke-width="0.2" stroke-linejoin="round" d="M 391.063,168.936L 354.485,168.936L 354.485,148.127L 371.371,148.127L 371.371,133.544L 354.485,133.544L 354.485,110.581L 391.063,110.581L 391.063,95.9921L 340.421,95.9921L 340.421,183.524L 391.063,183.524L 391.063,168.936 Z "/>
		<path fill="#000000" fill-opacity="1" stroke-width="0.2" stroke-linejoin="round" d="M 454.979,143.219L 419.193,143.219L 419.193,107.663L 454.979,107.663C 464.445,107.663 472.125,115.623 472.125,125.443C 472.125,135.259 464.445,143.219 454.979,143.219 Z M 499.089,142.127L 499.089,101.145C 494.717,95.8359 487.689,89.9719 462.099,89.9719L 419.193,89.9719C 407.68,89.9719 394.225,87.608 394.225,87.608C 394.225,87.608 396.159,96.448 396.159,107.663L 396.159,207.952L 419.193,207.952L 419.193,160.908L 451.199,160.908C 451.199,160.908 476.055,193.731 521.359,218.717C 485.076,173.913 482.725,156.264 482.725,156.264C 489.171,153.143 495.389,147.6 499.089,142.127 Z "/>
	</g>
</svg>

<svg xmlns="http://www.w3.org/2000/svg" baseProfile="full" width="960" height="265.685" viewBox="0 0 960 265.69"><path fill="#0E6939" d="M551.43 226.246l26.175 13.224v-43.421l-26.175 13.106v17.091z"/><path fill="#0F6B3A" d="M577.605 169.72v26.328l26.176-13.107-26.176-13.221z"/><path fill="#13A650" d="M577.605 196.048l26.176-13.107v43.416l-26.176 13.112v-43.421z"/><path fill="#8DC641" d="M472.915 195.829l52.345 26.44v43.416l-52.345-26.441v-43.415z"/><path fill="#2BB673" d="M525.26 222.269l26.171-13.114v43.421l-26.171 13.109v-43.416z"/><path fill="#13A650" d="M499.089 182.715l52.342 26.44-26.171 13.114-52.345-26.44 26.174-13.114z"/><path fill="#0E6939" d="M499.089 98.35l39.26 19.666 13.082-6.554v97.694l-52.342-26.442V98.35z"/><path fill="#8DC641" d="M551.43 111.462l26.175-13.112v97.697l-26.175 13.108v-97.693zM486.009 26.44V91.8l52.341 26.216V52.881L486.009 26.44z"/><path fill="#2BB673" d="M538.35 52.881l52.341-26.44v65.358l-52.341 26.217V52.881z"/><path fill="#0F9548" d="M538.35 0l-52.342 26.44L538.35 52.88l52.341-26.441L538.35 0z"/><g><path d="M638.589 73.381v56.04h-42.552V85.055l-5.405.003v6.722l-13.056 6.5.021 71.465 18.437 9.278.003-27.723h42.552v56.043h21.399V73.381h-21.399zM704.683 168.936c-15.755 0-28.523-13.072-28.523-29.184 0-16.111 12.768-29.171 28.523-29.171 15.753 0 28.521 13.06 28.521 29.171 0 16.112-12.768 29.184-28.521 29.184zm0-72.944c-23.633 0-42.792 19.593-42.792 43.76 0 24.176 19.159 43.772 42.792 43.772 23.627 0 42.792-19.596 42.792-43.772 0-24.167-19.165-43.76-42.792-43.76z"/><path d="M959.999 95.992H775.277c-13.772 0-24.951 11.427-24.951 25.531 0 14.098 11.179 25.528 24.951 25.528h19.978c5.914 0 10.704 4.904 10.704 10.937 0 6.055-4.79 10.948-10.704 10.948h-53.49v14.588h53.49c13.787 0 24.96-11.44 24.96-25.536 0-14.099-11.173-25.527-24.96-25.527h-19.978c-5.891 0-10.694-4.901-10.694-10.938 0-6.044 4.803-10.942 10.694-10.942h86.306v72.943h14.266v-72.943h40.47c13.199-12.4 43.68-14.589 43.68-14.589zM42.199 168.936c-15.536 0-28.135-13.072-28.135-29.184 0-16.111 12.599-29.171 28.135-29.171 7.768 0 14.805 3.268 19.9 8.547l9.941-10.316c-7.633-7.92-18.19-12.82-29.841-12.82C18.893 95.992 0 115.585 0 139.752c0 24.176 18.893 43.772 42.199 43.772 11.652 0 22.208-4.908 29.841-12.828l-9.941-10.304c-5.095 5.279-12.132 8.544-19.9 8.544zM115.346 139.752H90.028v-29.17h25.318c7.772 0 14.065 6.531 14.065 14.586 0 8.056-6.293 14.584-14.065 14.584zm28.139-14.584c0-16.114-12.603-29.176-28.139-29.176H75.959v87.533h14.07v-29.181h20.97l16.243 29.181h16.243l-17.458-31.366c10.242-4.364 17.458-14.799 17.458-26.991zM306.656 139.752H281.34v-29.17h25.316c7.777 0 14.074 6.531 14.074 14.586 0 8.054-6.297 14.584-14.074 14.584zm0-43.76h-95.651v72.945H163.18v-20.811h16.873v-14.581H163.18v-22.963h42.194v-14.59h-56.26v87.533h112.534v-14.588h-36.582v-20.811h16.883v-14.581h-16.883v-22.963h42.199v72.943h14.075v-29.181h25.316c15.545 0 28.134-13.063 28.134-29.176 0-16.114-12.589-29.176-28.134-29.176zM391.063 168.936h-36.578v-20.809h16.886v-14.583h-16.886v-22.963h36.578V95.992h-50.642v87.532h50.642v-14.588zM454.979 143.219h-35.786v-35.556h35.786c9.466 0 17.146 7.96 17.146 17.78 0 9.816-7.68 17.776-17.146 17.776zm44.11-1.092v-40.982c-4.372-5.31-11.4-11.173-36.99-11.173h-42.906c-11.513 0-24.968-2.364-24.968-2.364s1.934 8.84 1.934 20.055v100.289h23.034v-47.044h32.006s24.856 32.823 70.16 57.809c-36.283-44.804-38.634-62.453-38.634-62.453 6.446-3.121 12.664-8.664 16.364-14.137z"/></g></svg>
